svg/turnstile.svg

<svg xmlns="http://www.w3.org/2000/svg" viewBox="0 0 24 24"><path d="M22 22h-6V11l-6-6V2h12zM9.17 6.17C8.42 6.92 8 7.94 8 9H2v2h6.55c.35.6.85 1.1 1.45 1.45V19h2v-6c1.06 0 2.08-.42 2.83-1.17z"/></svg>

<?xml version="1.0" encoding="UTF-8"?><!DOCTYPE svg PUBLIC "-//W3C//DTD SVG 1.1//EN" "http://www.w3.org/Graphics/SVG/1.1/DTD/svg11.dtd"><svg xmlns="http://www.w3.org/2000/svg" xmlns:xlink="http://www.w3.org/1999/xlink" version="1.1" id="mdi-turnstile" width="24" height="24" viewBox="0 0 24 24"><path d="M22,22H16V11L10,5V2H22V22M9.17,6.17C8.42,6.92 8,7.94 8,9H2V11H8.55C8.9,11.6 9.4,12.1 10,12.45V19H12V13C13.06,13 14.08,12.58 14.83,11.83L9.17,6.17Z" /></svg>
